packages/ui-icons/src/System/32/Rating_5_32.svg

<svg xmlns="http://www.w3.org/2000/svg" viewBox="0 0 40 40" style="enable-background:new 0 0 40 40" xml:space="preserve"><path d="M25.8 24.2c-1.7 2.3-3.5 3.4-5.8 3.4s-4.1-1.1-5.8-3.4l1.6-1.2c1.4 1.8 2.6 2.6 4.2 2.6s2.8-.8 4.2-2.6l1.6 1.2zM15 14c1.1 0 2 .9 2 2s-.9 2-2 2-2-.9-2-2 .9-2 2-2zm10 0c1.1 0 2 .9 2 2s-.9 2-2 2-2-.9-2-2 .9-2 2-2zm-5 22c-8.8 0-16-7.2-16-16S11.2 4 20 4s16 7.2 16 16-7.2 16-16 16zm0-2c7.7 0 14-6.3 14-14S27.7 6 20 6 6 12.3 6 20s6.3 14 14 14z"/></svg>

<?xml version="1.0" encoding="utf-8"?>
<!-- Generator: Adobe Illustrator 23.0.1, SVG Export Plug-In . SVG Version: 6.00 Build 0)  -->
<svg version="1.1" id="Layer_1" xmlns="http://www.w3.org/2000/svg" xmlns:xlink="http://www.w3.org/1999/xlink" x="0px" y="0px"
	 viewBox="0 0 40 40" style="enable-background:new 0 0 40 40;" xml:space="preserve">
<title>Source/System Icons/32/Rating_5_32</title>
<desc>Created with Sketch.</desc>
<path d="M25.8,24.2c-1.7,2.3-3.5,3.4-5.8,3.4s-4.1-1.1-5.8-3.4l1.6-1.2c1.4,1.8,2.6,2.6,4.2,2.6s2.8-0.8,4.2-2.6L25.8,24.2z M15,14
	c1.1,0,2,0.9,2,2s-0.9,2-2,2s-2-0.9-2-2S13.9,14,15,14z M25,14c1.1,0,2,0.9,2,2s-0.9,2-2,2s-2-0.9-2-2S23.9,14,25,14z M20,36
	c-8.8,0-16-7.2-16-16S11.2,4,20,4s16,7.2,16,16S28.8,36,20,36z M20,34c7.7,0,14-6.3,14-14S27.7,6,20,6S6,12.3,6,20S12.3,34,20,34z"
	/>
</svg>
